X:176
T:Outward bound - Huggins
%%VWML:SBG-1-2-305-0
F:http://www.vwml.org/record/SBG/1/2/305
Z:Original Sibelius transcriptions by M. & S. Graebe
M:4/4
I:linebreak $
K:G
V:1 treble nm="P1"
V:1
 B | d d d B | G G G B | c d e B/c/ | d e d2 | B/B/ | c c B A/A/ |$ B c d d | g e d c | %9
w: |||||||* * D D|* * D C|
 B A G D/D/ | G B/B/ A F | G- B d d/g/ | d B/B/ c A | G2 x2 | %14
w: ||* * D * *|||
T:Outward bound - Kidson
F:http://www.vwml.org/record/SBG/1/2/305
Z:Original Sibelius transcriptions by M. & S. Graebe
M:4/4
I:linebreak $
K:F
V:1 treble nm="P1"
V:1
 C | F/ F/ c G/B/ A/G/ | F A F C | F/G/ A/B/ c f | d/c/ B/A/ G G/A/ | B B B G |$ A A A c | %7
w: To|Liver- * pool * * * *||||||
 f c A G/F/ | A F D C | D3/2 F/ E3/2 G/ | F- A/c/ !fermata!f e/f/ | d B/A/ G G | F3 x | %13
w: ||||||






